X: 37698
T: Sock In The Hole
R: polka
M: 2/4
K: Edorian
|:e2 ef/e/|df e2|Be de/d/|Be dB|
AF EF/E/|DF AB/c/|1 de dA|FE E2:|2 de dB|AF E2||
|:FE DF/A/|BA Bd|FE DF/A/|AF E2|
FE DF/A/|BA Bd|e2 e/f/e/d/|1 BA AD:|2 BA Ad||

